html/img/icons/broken_pedal.svg

<?xml version="1.0" encoding="UTF-8" standalone="no"?>
<svg
   xmlns:dc="http://purl.org/dc/elements/1.1/"
   xmlns:cc="http://creativecommons.org/ns#"
   xmlns:rdf="http://www.w3.org/1999/02/22-rdf-syntax-ns#"
   xmlns:svg="http://www.w3.org/2000/svg"
   xmlns="http://www.w3.org/2000/svg"
   id="svg2"
   version="1.1"
   viewBox="0 0 100 100">
  <defs
     id="defs24" />
  <metadata
     id="metadata4">
    <rdf:RDF>
      <cc:Work
         rdf:about="">
        <dc:format>image/svg+xml</dc:format>
        <dc:type
           rdf:resource="http://purl.org/dc/dcmitype/StillImage" />
        <dc:title></dc:title>
      </cc:Work>
    </rdf:RDF>
  </metadata>
  <text
     style="font-size:15px;line-height:125%;font-family:Sans;letter-spacing:0px;word-spacing:0px;fill:#000000"
     xml:space="preserve"
     font-size="15px"
     line-height="125%"
     y="-161.29745"
     x="-262.94159"
     id="text8"><tspan
       y="-161.29745"
       x="-262.94159"
       id="tspan10" /></text>
  <text
     style="font-size:15px;line-height:125%;font-family:Sans;letter-spacing:0px;word-spacing:0px;fill-opacity:0"
     xml:space="preserve"
     font-size="15px"
     line-height="125%"
     y="-78.544594"
     x="-232.5099"
     id="text12"><tspan
       y="-78.544594"
       x="-232.5099"
       id="tspan14" /></text>
  <path
     style="color:#000000;fill:#883996"
     d="M 50,0 A 50,50 0 0 0 0,50 50,50 0 0 0 50,100 50,50 0 0 0 100,50 50,50 0 0 0 50,0 Z m 0,8 A 42,42 0 0 1 92,50 42,42 0 0 1 50,92 42,42 0 0 1 8,50 42,42 0 0 1 50,8 Z"
     id="path16" />
  <rect
     style="color:#000000;fill:#883996"
     transform="matrix(0.70710678,-0.70710678,0.70710678,0.70710678,0,0)"
     rx="2.3403001"
     ry="1.7737"
     height="8"
     width="95"
     y="66.344299"
     x="-47.828461"
     id="rect18" />
  <path
     id="path5517-5"
     d="M 54.544922 14.794922 C 50.395303 14.79589 47.03147 17.307853 47.027344 20.40625 C 47.027175 22.273055 48.269101 24.016573 50.341797 25.060547 C 56.300898 28.572255 47.335304 31.680718 44.017578 31.640625 L 31.382812 31.640625 L 31.382812 44.275391 C 31.424972 47.595267 28.317214 56.576183 24.802734 50.59375 C 23.760394 48.524291 22.018188 47.280797 20.154297 47.277344 C 17.0503 47.275344 14.53467 50.647577 14.537109 54.804688 C 14.538076 58.958598 17.052695 62.324246 20.154297 62.322266 C 22.02228 62.320566 23.76797 61.075817 24.810547 59 C 27.071061 55.164086 29.155905 57.518433 30.347656 60.566406 C 40.327051 50.565126 50.479442 40.69546 60.376953 30.632812 C 57.291851 29.444088 54.866906 27.340595 58.748047 25.060547 C 60.820743 24.016573 62.062668 22.273055 62.0625 20.40625 C 62.058 17.307853 58.694531 14.79589 54.544922 14.794922 z M 76.285156 31.640625 C 61.4762 46.769595 46.245203 61.488349 31.382812 76.53125 L 31.382812 77.966797 L 45.322266 77.966797 L 45.367188 77.966797 C 45.490161 77.968097 46.39222 77.659781 47.158203 77.46875 C 45.539282 76.079692 44.263424 74.367862 44.263672 72.205078 L 44.263672 72.197266 C 44.267072 69.677267 45.777786 67.513687 47.703125 66.177734 C 49.628598 64.841782 52.031986 64.147032 54.611328 64.146484 C 57.19067 64.147032 59.594024 64.841782 61.519531 66.177734 C 63.444926 67.513687 64.955397 69.677267 64.958984 72.197266 L 64.958984 72.205078 C 64.959231 74.367862 63.681421 76.079692 62.0625 77.46875 C 62.826965 77.658686 63.732877 77.968271 63.855469 77.966797 L 63.957031 77.966797 L 77.707031 77.966797 L 77.707031 63.763672 L 77.707031 63.722656 C 77.708131 63.60263 77.377751 62.732449 77.175781 61.994141 C 75.696045 63.558564 73.871603 64.787042 71.568359 64.789062 C 68.877679 64.790762 66.568256 63.331875 65.140625 61.466797 C 63.712984 59.601762 62.967382 57.271478 62.966797 54.771484 C 62.965697 52.269595 63.713074 49.941234 65.140625 48.074219 C 66.568177 46.207246 68.875689 44.742499 71.568359 44.744141 L 71.576172 44.744141 C 73.879494 44.747741 75.697315 45.98102 77.175781 47.546875 C 77.377931 46.80882 77.710501 45.939033 77.708984 45.820312 L 77.708984 45.777344 L 77.708984 45.720703 L 77.708984 31.640625 L 76.285156 31.640625 z "
     style="color:#000000;display:inline;overflow:visible;visibility:visible;opacity:0.304;fill:#ffffff;fill-opacity:1;fill-rule:nonzero;stroke:none;stroke-width:4;stroke-linecap:butt;stroke-linejoin:round;stroke-miterlimit:4;stroke-dasharray:none;stroke-dashoffset:0;stroke-opacity:1;marker:none;enable-background:accumulate" />
</svg>

<?xml version="1.0" encoding="UTF-8" standalone="no"?>
<svg xmlns:rdf="http://www.w3.org/1999/02/22-rdf-syntax-ns#" xmlns="http://www.w3.org/2000/svg" viewBox="0 0 100 100" version="1.1" xmlns:cc="http://creativecommons.org/ns#" xmlns:dc="http://purl.org/dc/elements/1.1/">
<metadata>
<rdf:RDF>
<cc:Work rdf:about="">
<dc:format>image/svg+xml</dc:format>
<dc:type rdf:resource="http://purl.org/dc/dcmitype/StillImage"/>
<dc:title/>
</cc:Work>
</rdf:RDF>
</metadata>
<text style="word-spacing:0px;letter-spacing:0px" xml:space="preserve" font-size="15px" y="-161.29745" x="-262.94159" font-family="Sans" line-height="125%" fill="#000000"><tspan y="-161.29745" x="-262.94159"/></text>
<text style="word-spacing:0px;letter-spacing:0px" fill-opacity="0" xml:space="preserve" font-size="15px" y="-78.544594" x="-232.5099" font-family="Sans" line-height="125%"><tspan y="-78.544594" x="-232.5099"/></text>
<path style="color:#000000" fill="#883996" d="m50 0a50 50 0 0 0 -50 50 50 50 0 0 0 50 50 50 50 0 0 0 50 -50 50 50 0 0 0 -50 -50zm0 8a42 42 0 0 1 42 42 42 42 0 0 1 -42 42 42 42 0 0 1 -42 -42 42 42 0 0 1 42 -42z"/>
<rect ry="1.7737" style="color:#000000" rx="2.3403" transform="rotate(-45)" height="8" width="95" y="66.344" x="-47.828" fill="#883996"/>
<path opacity=".304" style="color:#000000" d="m54.545 14.795c-4.15 0.001-7.514 2.513-7.518 5.611 0 1.867 1.242 3.611 3.315 4.655 5.959 3.511-3.007 6.62-6.324 6.58h-12.635v12.634c0.042 3.32-3.066 12.301-6.58 6.319-1.043-2.07-2.785-3.313-4.649-3.317-3.104-0.002-5.619 3.371-5.617 7.528 0.001 4.154 2.516 7.519 5.617 7.517 1.868-0.001 3.614-1.246 4.657-3.322 2.26-3.836 4.345-1.482 5.537 1.566 9.979-10.001 20.131-19.871 30.029-29.933-3.085-1.189-5.51-3.292-1.629-5.572 2.073-1.044 3.315-2.788 3.314-4.655-0.004-3.098-3.367-5.61-7.517-5.611zm21.74 16.846c-14.809 15.129-30.04 29.847-44.902 44.89v1.436h13.939 0.045c0.123 0.001 1.025-0.307 1.791-0.498-1.619-1.389-2.895-3.101-2.894-5.264v-0.008c0.003-2.52 1.514-4.683 3.439-6.019 1.926-1.336 4.329-2.031 6.908-2.032 2.58 0.001 4.983 0.696 6.909 2.032 1.925 1.336 3.435 3.499 3.439 6.019v0.008c0 2.163-1.278 3.875-2.897 5.264 0.765 0.19 1.671 0.499 1.793 0.498h0.102 13.75v-14.203-0.041c0.001-0.12-0.329-0.991-0.531-1.729-1.48 1.565-3.304 2.793-5.608 2.795-2.69 0.002-5-1.457-6.427-3.322-1.428-1.865-2.174-4.196-2.174-6.696-0.001-2.501 0.746-4.83 2.174-6.697 1.427-1.867 3.735-3.332 6.427-3.33h0.008c2.303 0.004 4.121 1.237 5.6 2.803 0.202-0.738 0.535-1.608 0.533-1.727v-0.043-0.056-14.08h-1.424z" fill="#fff"/>
</svg>
